X: 1
T: Paddy Fahey's
M: 4/4
L: 1/8
R: hornpipe
K: Gmaj
B,2 DB, C2 AC |B,D GB AD FA |Gg fe dc BA |Gd (3:2:1d(3:2:1^c(3:2:1d ed cd |
BG DB, C2 AC |B,D GB AD FA |Gg fe dc BA |1GA GF G4 :|\
M:3/4
[2GA GF G2 ||
M:4/4
(3:2:1d(3:2:1e(3:2:1f |:gd Bd eg fe |de fd ed ^cd |BG DB, C2 AC |B,D GB AD FA |
Gg fe dc BA |Gd (3:2:1d(3:2:1^c(3:2:1d ed cd |BG DB, C2 AC |1B,D FA G2 (3:2:1d(3:2:1e(3:2:1f :|2B,D FA G4 |]
